X: 6321
T: Carroll's
R: polka
M: 2/4
K: Gmajor
|:"G"G>E DE|"G"GA Bd|"C"e/f/g/e/ "G"dB|"Em" B/A/G EF|
"G"G>E DE|"Em"GA "Bm"Bd|"C"e/f/g/e/ "G"dB|"D7" B/A/G "G"G2:|
|:"Em"ef/e/ "G"Bd|"Bm"f/e/d "G"B>d|"C"e/f/g/e/ "G"dB|"Em" B/A/G "D7"EF|
"G"G>E DE|"Em"GA "Bm"Bd|"C"e/f/g/e/ "G"dB|"D7" B/A/G "G"G2:|

